X:5
T:Bransles de Lorraine
R:Bransle
D:Groupe sans gain
O:France
A:Lorraine
Z:<anamnese@laposte.net> -- http://anamnese.fr.st
M:4/4
L:1/8
Q:1/4=115
K:C
|: CDEE DCD2 :| EFG2 FED2 | EFEG CED2 |: CDEG GG/A/ GG | CDEG FF/G/ C2 :|
[K:Eb]|: CDE2 ED/C/DD | CDE2 ED/C/D2 :| 
|: CDE2 E>DC2 | CB,/A,/ G,C CCDD | CDEE DCDD | CB,/A,/ G,C DB,C2 :| 
%rythmes intressants |: CDEG G/G/AGG | CDEG F/F/GC2 :| CDE>E DCD<D | CDE>E DCD2 |
%% CDE2 E>DC2 | CB,/A,/G,C B,CD2 |
